X: 1
T:Crookit Bawbee, The
R:Jig
S:Billy Pigg record
A:Northumbria
O:England
M:6/8
L:1/8
K:G
B/A/|G>Bd gfe|d<Ac cBd c>eg|B>cA G2G|!
B>AG GAB|c>de dBd c<GA|B>cA G2G|!
B>AB c>Bc|f2e/d/ dAG GFG|B>AG A2A|!
B>AB c>Bc|f2e/d/ dAF G2|!
